public/img/feature-1.svg

<svg width="529" height="461" viewBox="0 0 529 461" fill="none" xmlns="http://www.w3.org/2000/svg">
<path fill-rule="evenodd" clip-rule="evenodd" d="M381.312 2.7356C393.448 -0.0856339 405.823 -0.617239 418.55 2.22651L381.312 2.7356ZM331.731 24.8912C339.568 20.1365 347.442 15.7319 355.387 12.0046L441.65 10.6754C449.312 14.5929 456.494 19.4484 463.194 25.0552L331.731 24.8912ZM296.732 47.4596C300.035 45.3131 303.336 43.1417 306.637 40.9701C310.871 38.1847 315.105 35.3992 319.345 32.6659L470.312 31.4622C475.572 36.5401 480.5 42.0871 485.094 47.9968L296.732 47.4596ZM252.522 73.3513C255.649 71.363 258.88 69.5032 262.251 67.8167C267.274 65.3032 272.272 62.5405 277.253 59.6124L496.036 63.712C498.27 67.2889 500.401 70.9497 502.428 74.6763L252.522 73.3513ZM221.65 97.32C223.467 95.8215 225.275 94.3104 227.084 92.7986C230.535 89.9139 233.99 87.0266 237.513 84.2191L506.256 82.035C508.887 87.3248 511.317 92.7189 513.546 98.1685L221.65 97.32ZM185.332 120.65C186.229 120.296 187.119 119.926 188.001 119.541C195.801 116.13 202.839 111.725 209.52 106.842L517.644 108.874C518.534 111.366 519.382 113.862 520.19 116.359L185.332 120.65ZM81.2014 139.709C91.5942 134.973 103.521 132.8 116.033 131.416L522.979 125.563C523.982 129.105 524.9 132.636 525.734 136.144C526.058 137.506 526.355 138.868 526.626 140.228L81.2014 139.709ZM55.6268 162.911C57.0519 160.585 58.5941 158.326 60.2571 156.145C61.9504 153.924 63.7609 151.907 65.6776 150.072L527.651 146.159C528.541 152.24 528.939 158.302 528.921 164.345L55.6268 162.911ZM45.0565 188.499C46.5221 182.657 48.4817 177.002 50.9725 171.62L527.922 180.557C527.512 184.06 526.984 187.558 526.353 191.051L45.0565 188.499ZM41.7274 213.045C41.8443 209.35 42.1194 205.679 42.5607 202.051L524.935 198.131C523.741 203.576 522.32 209.011 520.729 214.437L41.7274 213.045ZM43.1626 237.529C42.2992 231.596 41.7961 225.619 41.6855 219.676L518.074 223.027C517.204 225.711 516.3 228.393 515.369 231.073L43.1626 237.529ZM46.6895 254.705C46.0086 252.144 45.3923 249.56 44.8435 246.959L512.262 239.757C510.361 244.935 508.385 250.109 506.383 255.279L46.6895 254.705ZM54.4808 276.939C52.7686 273.061 51.2078 269.066 49.8107 264.985L504.019 261.364C503.766 262.013 503.513 262.662 503.26 263.311C501.326 268.276 499.392 273.24 497.503 278.202L54.4808 276.939ZM71.0687 302.56C66.7139 298.27 62.9005 293.382 59.7882 287.705C59.4222 287.037 59.0609 286.365 58.7044 285.688L491.765 293.802C491.48 294.611 491.198 295.42 490.919 296.229C489.949 299.038 489.018 301.888 488.117 304.771L71.0687 302.56ZM113.098 327.175C104.518 323.702 96.1904 320.021 88.562 315.6L485.828 312.371C484.305 317.598 482.854 322.906 481.422 328.245L113.098 327.175ZM166.108 351.095C157.029 345.263 146.997 340.697 136.75 336.518L478.619 338.773C477.877 341.557 477.132 344.341 476.376 347.119L166.108 351.095ZM200.65 379.318C197.2 376.127 193.729 372.942 190.197 369.819L470.998 365.781C469.542 370.473 468.004 375.101 466.348 379.628L200.65 379.318ZM230.391 405.236C224.366 400.696 218.609 395.741 212.933 390.619L462.882 388.502C460.344 394.575 457.53 400.41 454.342 405.914L230.391 405.236ZM296.954 435.117C290.315 432.842 283.73 430.488 277.236 428.166C272.18 426.359 267.179 424.571 262.251 422.856C260.387 422.208 258.56 421.507 256.767 420.758L441.008 424.211C437.042 428.491 432.644 432.383 427.73 435.81L296.954 435.117ZM401.796 447.901C383.471 452.985 363.93 452.175 344.119 448.37L401.796 447.901Z" fill="white"/>
<path fill-rule="evenodd" clip-rule="evenodd" d="M220.588 77.0802C273.056 50.8262 322.735 -2.6002 379.518 12.1248C435.513 26.6457 470.68 89.0739 484.071 145.407C497.018 199.868 467.532 252.585 449.256 305.493C431.386 357.226 426.892 422.953 379.045 449.449C331.385 475.841 272.035 450.023 220.588 432.12C182.494 418.863 159.588 383.798 126.034 361.399C90.3146 337.555 38.7804 334.646 18.1259 296.969C-3.47771 257.559 -8.64989 201.143 18.5948 165.409C46.1416 129.278 104.732 146.998 146.339 128.804C174.663 116.418 192.941 90.9146 220.588 77.0802Z" fill="#476FB2"/>
</svg>

<svg width="529" height="461" fill="none" xmlns="http://www.w3.org/2000/svg"><path fill-rule="evenodd" clip-rule="evenodd" d="M381.312 2.736c12.136-2.822 24.511-3.353 37.238-.51l-37.238.51zM331.731 24.89c7.837-4.754 15.711-9.16 23.656-12.886l86.263-1.33c7.662 3.918 14.844 8.773 21.544 14.38l-131.463-.164zm-34.999 22.57c3.303-2.147 6.604-4.318 9.905-6.49 4.234-2.785 8.468-5.57 12.708-8.304l150.967-1.204c5.26 5.078 10.188 10.625 14.782 16.535l-188.362-.537zm-44.21 25.891a109.116 109.116 0 019.729-5.534c5.023-2.514 10.021-5.276 15.002-8.205l218.783 4.1a211.243 211.243 0 016.392 10.964l-249.906-1.325zM221.65 97.32c1.817-1.498 3.625-3.01 5.434-4.521 3.451-2.885 6.906-5.772 10.429-8.58l268.743-2.184a241.85 241.85 0 017.29 16.133L221.65 97.32zm-36.318 23.33a80.991 80.991 0 002.669-1.109c7.8-3.411 14.838-7.816 21.519-12.699l308.124 2.032c.89 2.492 1.738 4.988 2.546 7.485l-334.858 4.291zm-104.13 19.059c10.392-4.736 22.319-6.909 34.831-8.293l406.946-5.853a257.147 257.147 0 012.755 10.581c.324 1.362.621 2.724.892 4.084l-445.425-.519zm-25.575 23.202a80.586 80.586 0 014.63-6.766 52.201 52.201 0 015.42-6.073l461.974-3.913c.89 6.081 1.288 12.143 1.27 18.186l-473.294-1.434zm-10.57 25.588c1.465-5.842 3.425-11.497 5.915-16.879l476.95 8.937c-.41 3.503-.938 7.001-1.569 10.494l-481.296-2.552zm-3.33 24.546c.117-3.695.392-7.366.834-10.994l482.374-3.92c-1.194 5.445-2.615 10.88-4.206 16.306l-479.002-1.392zm1.436 24.484a142.566 142.566 0 01-1.477-17.853l476.388 3.351a406.45 406.45 0 01-2.705 8.046l-472.206 6.456zm3.527 17.176a153.437 153.437 0 01-1.846-7.746l467.418-7.202a943.954 943.954 0 01-5.879 15.522l-459.693-.574zm7.79 22.234a149.515 149.515 0 01-4.67-11.954l454.209-3.621-.759 1.947c-1.934 4.965-3.868 9.929-5.757 14.891l-443.022-1.263zm16.59 25.621c-4.355-4.29-8.169-9.178-11.28-14.855a133.78 133.78 0 01-1.085-2.017l433.061 8.114a303.969 303.969 0 00-3.648 10.969L71.069 302.56zm42.029 24.615c-8.58-3.473-16.908-7.154-24.536-11.575l397.266-3.229c-1.523 5.227-2.974 10.535-4.406 15.874l-368.324-1.07zm53.01 23.92c-9.079-5.832-19.111-10.398-29.358-14.577l341.869 2.255c-.742 2.784-1.487 5.568-2.243 8.346l-310.268 3.976zm34.542 28.223c-3.45-3.191-6.921-6.376-10.453-9.499l280.801-4.038a293.778 293.778 0 01-4.65 13.847l-265.698-.31zm29.741 25.918c-6.025-4.54-11.782-9.495-17.458-14.617l249.949-2.117c-2.538 6.073-5.352 11.908-8.54 17.412l-223.951-.678zm66.563 29.881c-6.639-2.275-13.224-4.629-19.718-6.951-5.056-1.807-10.057-3.595-14.985-5.31a96.026 96.026 0 01-5.484-2.098l184.241 3.453c-3.966 4.28-8.364 8.172-13.278 11.599l-130.776-.693zm104.842 12.784c-18.325 5.084-37.866 4.274-57.677.469l57.677-.469z" fill="#fff"/><path fill-rule="evenodd" clip-rule="evenodd" d="M220.588 77.08c52.468-26.254 102.147-79.68 158.93-64.955 55.995 14.52 91.162 76.949 104.553 133.282 12.947 54.461-16.539 107.178-34.815 160.086-17.87 51.733-22.364 117.46-70.211 143.956-47.66 26.392-107.01.574-158.457-17.329-38.094-13.257-61-48.322-94.554-70.721-35.72-23.844-87.254-26.753-107.908-64.43-21.604-39.41-26.776-95.826.469-131.56 27.547-36.131 86.137-18.411 127.744-36.605 28.324-12.386 46.602-37.89 74.249-51.724z" fill="#476FB2"/></svg>
